Icons/com_groupme_android.svg

<svg viewBox="0 0 48 48"><defs><linearGradient id="linearGradient3764" x1="1" x2="47" gradientUnits="userSpaceOnUse" gradientTransform="translate(-48.000001,0.00221467)"><stop stop-color="#e0dd32" stop-opacity="1"/><stop offset="1" stop-color="#e2e244" stop-opacity="1"/></linearGradient><clipPath id="clipPath-466086150"><g transform="translate(0,-1004.3622)"><rect rx="4" y="1005.36" x="1" height="46" width="46" fill="#1890d0"/></g></clipPath><clipPath id="clipPath-480258100"><g transform="translate(0,-1004.3622)"><rect rx="4" y="1005.36" x="1" height="46" width="46" fill="#1890d0"/></g></clipPath></defs><g><path d="m 1 43 l 0 0.25 c 0 2.216 1.784 4 4 4 l 38 0 c 2.216 0 4 -1.784 4 -4 l 0 -0.25 c 0 2.216 -1.784 4 -4 4 l -38 0 c -2.216 0 -4 -1.784 -4 -4 z m 0 0.5 l 0 0.5 c 0 2.216 1.784 4 4 4 l 38 0 c 2.216 0 4 -1.784 4 -4 l 0 -0.5 c 0 2.216 -1.784 4 -4 4 l -38 0 c -2.216 0 -4 -1.784 -4 -4 z" opacity="0.02"/><path d="m 1 43.25 l 0 0.25 c 0 2.216 1.784 4 4 4 l 38 0 c 2.216 0 4 -1.784 4 -4 l 0 -0.25 c 0 2.216 -1.784 4 -4 4 l -38 0 c -2.216 0 -4 -1.784 -4 -4 z" opacity="0.05"/><path d="m 1 43 l 0 0.25 c 0 2.216 1.784 4 4 4 l 38 0 c 2.216 0 4 -1.784 4 -4 l 0 -0.25 c 0 2.216 -1.784 4 -4 4 l -38 0 c -2.216 0 -4 -1.784 -4 -4 z" opacity="0.1"/></g><g><rect width="46" height="46" x="-47" y="1" rx="4" transform="matrix(0,-1,1,0,0,0)" fill="url(#linearGradient3764)" fill-opacity="1"/></g><g><g clip-path="url(#clipPath-466086150)"><g opacity="0.1"><!-- color: #e2e244 --><g><path d="m 15 11 c -1.109 0 -2 0.891 -2 2 l 0 18 c 0 1.109 0.891 2 2 2 l 6 0 l 3 4 l 3 -4 l 6 0 c 1.109 0 2 -0.891 2 -2 l 0 -18 c 0 -1.109 -0.891 -2 -2 -2 m -18 0" fill="#000"/><path d="m 19 19 l 10 0 l 0 2 l -10 0 m 0 -6 l 10 0 l 0 2 l -10 0 m 0 -2" fill="#000"/><path d="m 23 23 l 0 -10 l -2 0 l 0 10 m 6 0 l 0 -10 l -2 0 l 0 10 m 2 0" fill="#000"/><path d="m 17 25 c 5 4 9 4 14 0 c 1.027 -0.297 1 1 0 2 c -5 4 -9 4 -14 0 c -1 -1 -1 -2 0 -2 m 0 0" fill="#000"/></g></g></g></g><g><g clip-path="url(#clipPath-480258100)"><g transform="translate(0,-1)"><!-- color: #e2e244 --><g><path d="m 15 11 c -1.109 0 -2 0.891 -2 2 l 0 18 c 0 1.109 0.891 2 2 2 l 6 0 l 3 4 l 3 -4 l 6 0 c 1.109 0 2 -0.891 2 -2 l 0 -18 c 0 -1.109 -0.891 -2 -2 -2 m -18 0" fill="#00afee"/><path d="m 19 19 l 10 0 l 0 2 l -10 0 m 0 -6 l 10 0 l 0 2 l -10 0 m 0 -2" fill="#f9f9f9"/><path d="m 23 23 l 0 -10 l -2 0 l 0 10 m 6 0 l 0 -10 l -2 0 l 0 10 m 2 0" fill="#f9f9f9"/><path d="m 17 25 c 5 4 9 4 14 0 c 1.027 -0.297 1 1 0 2 c -5 4 -9 4 -14 0 c -1 -1 -1 -2 0 -2 m 0 0" fill="#f9f9f9"/></g></g></g></g><g><g transform="translate(0,-1004.3622)"><path d="m 1 1043.36 0 4 c 0 2.216 1.784 4 4 4 l 38 0 c 2.216 0 4 -1.784 4 -4 l 0 -4 c 0 2.216 -1.784 4 -4 4 l -38 0 c -2.216 0 -4 -1.784 -4 -4 z" opacity="0.1"/></g></g></svg>

<svg viewBox="0 0 48 48" xmlns:xlink="http://www.w3.org/1999/xlink">
 <defs>
  <linearGradient id="0">
   <stop stop-opacity="0"/>
   <stop offset="1"/>
  </linearGradient>
  <linearGradient xlink:href="#0" id="1" gradientUnits="userSpaceOnUse" gradientTransform="translate(4e-7,-48)" y1="47" x2="0" y2="1"/>
  <clipPath id="2">
   <g transform="translate(0,-1004.3622)">
    <rect rx="4" y="1005.36" x="1" height="46" width="46" fill="#1890d0"/>
   </g>
  </clipPath>
  <clipPath id="3">
   <g transform="translate(0,-1004.3622)">
    <rect rx="4" y="1005.36" x="1" height="46" width="46" fill="#1890d0"/>
   </g>
  </clipPath>
 </defs>
 <g>
  <g transform="translate(0,-1004.3622)">
   <path d="m 5,1006.3622 c -2.216,0 -4,1.784 -4,4 l 0,37.25 c 0,2.216 1.784,4 4,4 l 38,0 c 2.216,0 4,-1.784 4,-4 l 0,-37.25 c 0,-2.216 -1.784,-4 -4,-4 l -38,0 z m -4,41.5 0,0.5 c 0,2.216 1.784,4 4,4 l 38,0 c 2.216,0 4,-1.784 4,-4 l 0,-0.5 c 0,2.216 -1.784,4 -4,4 l -38,0 c -2.216,0 -4,-1.784 -4,-4 z" opacity="0.02"/>
   <path d="m 1,1047.6122 0,0.25 c 0,2.216 1.784,4 4,4 l 38,0 c 2.216,0 4,-1.784 4,-4 l 0,-0.25 c 0,2.216 -1.784,4 -4,4 l -38,0 c -2.216,0 -4,-1.784 -4,-4 z" opacity="0.05"/>
   <rect width="46" height="46" x="1" y="1005.61" rx="4" opacity="0.1"/>
  </g>
 </g>
 <g>
  <g transform="translate(0,-1004.3622)">
   <rect rx="4" y="1005.36" x="1" height="46" width="46" fill="#e2e244"/>
  </g>
 </g>
 <g>
  <rect transform="scale(1,-1)" width="46" height="46" x="1" y="-46.998" rx="4" opacity="0.1" fill="url(#1)"/>
 </g>
 <g>
  <g clip-path="url(#2)">
   <g opacity="0.1">
    <g>
     <path d="M 15 11 C 13.890625 11 13 11.890625 13 13 L 13 31 C 13 32.109375 13.890625 33 15 33 L 21 33 L 24 37 L 27 33 L 33 33 C 34.109375 33 35 32.109375 35 31 L 35 13 C 35 11.890625 34.109375 11 33 11 Z M 15 11 "/>
     <path d="M 19 19 L 29 19 L 29 21 L 19 21 Z M 19 15 L 29 15 L 29 17 L 19 17 Z M 19 15 "/>
     <path d="M 23 23 L 23 13 L 21 13 L 21 23 Z M 27 23 L 27 13 L 25 13 L 25 23 Z M 27 23 "/>
     <path d="M 17 25 C 22 29 26 29 31 25 C 32.027344 24.703125 32 26 31 27 C 26 31 22 31 17 27 C 16 26 16 25 17 25 Z M 17 25 "/>
    </g>
   </g>
  </g>
 </g>
 <g>
  <g clip-path="url(#3)">
   <g transform="translate(0,-1)">
    <g>
     <path d="M 15 11 C 13.890625 11 13 11.890625 13 13 L 13 31 C 13 32.109375 13.890625 33 15 33 L 21 33 L 24 37 L 27 33 L 33 33 C 34.109375 33 35 32.109375 35 31 L 35 13 C 35 11.890625 34.109375 11 33 11 Z M 15 11 " fill="#00afee"/>
     <path d="M 19 19 L 29 19 L 29 21 L 19 21 Z M 19 15 L 29 15 L 29 17 L 19 17 Z M 19 15 " fill="#f9f9f9"/>
     <path d="M 23 23 L 23 13 L 21 13 L 21 23 Z M 27 23 L 27 13 L 25 13 L 25 23 Z M 27 23 " fill="#f9f9f9"/>
     <path d="M 17 25 C 22 29 26 29 31 25 C 32.027344 24.703125 32 26 31 27 C 26 31 22 31 17 27 C 16 26 16 25 17 25 Z M 17 25 " fill="#f9f9f9"/>
    </g>
   </g>
  </g>
 </g>
 <g>
  <g transform="translate(0,-1004.3622)">
   <path d="m 1,1043.3622 0,4 c 0,2.216 1.784,4 4,4 l 38,0 c 2.216,0 4,-1.784 4,-4 l 0,-4 c 0,2.216 -1.784,4 -4,4 l -38,0 c -2.216,0 -4,-1.784 -4,-4 z" opacity="0.1"/>
  </g>
 </g>
</svg>
